X: 23
T: Puis quaultrement / Marchez la dureau
N: Derived from Ano3029-Puis_quaultrement__Marchez_la_dureau--Dijon_Chansonnier.krn
C: Anonymous
%%abc-version 2.0
%%abcx-abcm2ps-target-version 5.9.1 (29 Sep 2008)
%%abc-creator hum2abc beta
%%abcx-conversion-date 2019/02/16 20:18:27
%%abc-edited-by Jesse Rodin
%%abc-edited-by Chris Gage 03-05-2015
%%abcx-initial-encoding-date 2015/03/13/
%%humdrum-veritas 2488430832
%%humdrum-veritas-data 3564358109
%%linebreak <none>
%%barnumbers 0
L: 1/4
M: 2/1
Q: 1/2=120
%%staves [1 2 3 4]
V: 1 clef=treble
V: 2 clef=bass
V: 3 clef=bass
V: 4 clef=bass
K: F
[V:1] z8 | 
[V:2] F,4D,4 | 
[V:3] z8 | 
[V:4] F,6G,2 | 
[V:1] F4D4 | 
[V:2] F,4G,4 | 
[V:3] z8 | 
[V:4] A,4B,4 | 
[V:1] F6G2 | 
[V:2] A,8 | 
[V:3] F,4D,4 | 
[V:4] A,4F,4 | 
[V:1] A4D4 | 
[V:2] D,6E,2 | 
[V:3] F,4G,4 | 
[V:4] z4B,,4 | 
[V:1] z4=B,4 | 
[V:2] F,4G,4 | 
[V:3] A,4z4 | 
[V:4] A,,4G,,4 | 
[V:1] C4D4- | 
[V:2] E,4D,4 | 
[V:3] z8 | 
[V:4] A,,4B,,4- | 
[V:1] D2E2F3E | 
[V:2] z8 | 
[V:3] D,6E,2 | 
[V:4] B,,2C,2D,3C, | 
[V:1] C2D2C2E2- | 
[V:2] z8 | 
[V:3] F,4G,4 | 
[V:4] A,,2B,,3A,,C,2- | 
[V:1] E=B,^C2D4 | 
[V:2] z8 | 
[V:3] E,4D,4 | 
[V:4] C,G,,A,,2B,,4- | 
[V:1] z4D4- | 
[V:2] F,4D,4 | 
[V:3] z8 | 
[V:4] B,,2D,3E,F,2- | 
[V:1] D2C2=B,3A, | 
[V:2] F,4G,4 | 
[V:3] z8 | 
[V:4] F,2E,D,E,4 | 
[V:1] A,4F4- | 
[V:2] A,8 | 
[V:3] F,4D,4 | 
[V:4] z4F,4 | 
[V:1] F2E2D4- | 
[V:2] D,8 | 
[V:3] F,4G,4 | 
[V:4] B,,4B,,4 | 
[V:1] D2^C=B,C3B, | 
[V:2] E,4E,4 | 
[V:3] A,8 | 
[V:4] A,,4A,,4 | 
[V:1] D6F2- | 
[V:2] D,8 | 
[V:3] z8 | 
[V:4] B,,4G,,2D,2- | 
[V:1] FGA4GF | 
[V:2] z8 | 
[V:3] D,8 | 
[V:4] D,E,F,4E,D, | 
[V:1] GFED^C3=B, | 
[V:2] z8 | 
[V:3] E,4E,4 | 
[V:4] C,3B,,A,,4 | 
[V:1] D4z4 | 
[V:2] A,4=B,4 | 
[V:3] D,8 | 
[V:4] z4D,4 | 
[V:1] A4=B4 | 
[V:2] C4=B,4 | 
[V:3] z8 | 
[V:4] C,2A,,4G,,2 | 
[V:1] c4=B4 | 
[V:2] A,4z4 | 
[V:3] A,4=B,4 | 
[V:4] A,,2C,2D,2E,2 | 
[V:1] A4z4 | 
[V:2] A,4=B,4 | 
[V:3] C4=B,4 | 
[V:4] C,2B,,A,,G,,3F,, | 
[V:1] A4=B4 | 
[V:2] C4=B,4 | 
[V:3] A,4z4 | 
[V:4] A,,2A,,4G,,2 | 
[V:1] c4=B4 | 
[V:2] A,4z4 | 
[V:3] A,4=B,4 | 
[V:4] A,,3^F,,^G,,4 | 
[V:1] A4z4 | 
[V:2] A,4G,4 | 
[V:3] C4=B,4 | 
[V:4] A,,4E,4- | 
[V:1] A4F2G2 | 
[V:2] A,4=B,4 | 
[V:3] A,4z4 | 
[V:4] E,2C,2D,2E,2 | 
[V:1] A3GE4 | 
[V:2] C6=B,2 | 
[V:3] z8 | 
[V:4] A,,4C,4 | 
[V:1] F4E2G2- | 
[V:2] A,4B,4 | 
[V:3] A,4G,4 | 
[V:4] D,6E,2 | 
[V:1] GFF4E2 | 
[V:2] A,3F,G,4 | 
[V:3] A,4=B,4 | 
[V:4] F,4z4 | 
[V:1] F4A4- | 
[V:2] F,8 | 
[V:3] C6=B,2 | 
[V:4] A,4F,2D,2- | 
[V:1] A2F2F4- | 
[V:2] z8 | 
[V:3] A,4B,4 | 
[V:4] D,E,F,2B,,3C, | 
[V:1] F2D2E4 | 
[V:2] z4C4 | 
[V:3] A,3F,G,4 | 
[V:4] D,4C,4 | 
[V:1] F4z4 | 
[V:2] A,4C4 | 
[V:3] F,8 | 
[V:4] z4F,,4 | 
[V:1] c4A4 | 
[V:2] A,8 | 
[V:3] z4C4 | 
[V:4] F,,4F,,4 | 
[V:1] c4A4 | 
[V:2] z8 | 
[V:3] A,4C4 | 
[V:4] F,,8 | 
[V:1] z8 | 
[V:2] F,4D,4 | 
[V:3] A,8 | 
[V:4] F,,6G,,2 | 
[V:1] F4D4 | 
[V:2] F,4G,4 | 
[V:3] z8 | 
[V:4] A,,4B,,4 | 
[V:1] F6G2 | 
[V:2] A,8 | 
[V:3] F,4D,4 | 
[V:4] F,,4z4 | 
[V:1] A4D4 | 
[V:2] D,6E,2 | 
[V:3] F,4G,4 | 
[V:4] z8 | 
[V:1] z4D4 | 
[V:2] F,4G,4 | 
[V:3] A,4z4 | 
[V:4] F,,4B,,4 | 
[V:1] E4F4- | 
[V:2] E,4D,4 | 
[V:3] z8 | 
[V:4] C,4D,4 | 
[V:1] F2G2F2ED | 
[V:2] z8 | 
[V:3] D,6E,2 | 
[V:4] B,,3A,,B,,2C,2 | 
[V:1] C2D4C=B, | 
[V:2] z8 | 
[V:3] F,4G,4 | 
[V:4] A,,2B,,4A,,G,, | 
[V:1] C4D2F2- | 
[V:2] z8 | 
[V:3] E,4D,4 | 
[V:4] A,,4z2D,2- | 
[V:1] FGA3GF2- | 
[V:2] F,4D,4 | 
[V:3] z8 | 
[V:4] D,E,F,3G,A,2- | 
[V:1] F2ED^C3=B, | 
[V:2] F,4G,4 | 
[V:3] z8 | 
[V:4] A,2G,F,E,3D, | 
[V:1] D4z4 | 
[V:2] A,8 | 
[V:3] F,4D,4 | 
[V:4] D,4F,4 | 
[V:1] D8 | 
[V:2] D,8 | 
[V:3] F,4G,4 | 
[V:4] z4B,,4 | 
[V:1] C4C4 | 
[V:2] E,4E,4 | 
[V:3] A,8 | 
[V:4] A,,4A,,4 | 
[V:1] D6C=B, | 
[V:2] D,8 | 
[V:3] z8 | 
[V:4] B,,6A,,G,, | 
[V:1] A,4D4- | 
[V:2] z8 | 
[V:3] D,8 | 
[V:4] F,,4B,,4 | 
[V:1] D2^C2C2=B,2 | 
[V:2] A,8- | 
[V:3] E,4E,4 | 
[V:4] A,,8 | 
[V:1] D8- | 
[V:2] A,8- | 
[V:3] D,8- | 
[V:4] z4D,4 | 
[V:1] D8 |]  
[V:2] A,8 |]  
[V:3] D,8 |]  
[V:4] D,8 |]  



